img/image/single-features.svg

<svg width="128" height="85" viewBox="0 0 128 85" fill="none" xmlns="http://www.w3.org/2000/svg">
<g opacity="0.6">
<path d="M108.786 19.9497C119.835 31.269 126.646 46.7456 126.646 63.8231H80.6493M46.9881 63.8231H1C1 29.1274 29.1274 1.00001 63.8234 1.00001C77.5716 1.00001 90.286 5.41842 100.625 12.9043" stroke="#D9D9D9" stroke-width="2" stroke-miterlimit="10" stroke-linecap="round" stroke-linejoin="round"/>
<path d="M63.8228 79.1115C72.2445 79.1115 79.1102 72.2458 79.1102 63.8238C79.1102 55.4021 72.2445 48.5368 63.8228 48.5368C55.4005 48.5368 48.5352 55.4021 48.5352 63.8238C48.5352 72.2458 55.4005 79.1115 63.8228 79.1115Z" stroke="#D9D9D9" stroke-width="2" stroke-miterlimit="10" stroke-linecap="round" stroke-linejoin="round"/>
<path d="M80.1452 18.979L81.9268 14.0658M45.7101 14.0658L47.5006 18.979M94.4879 27.2753L97.8439 23.2708M29.793 23.2708L33.1582 27.2753M105.141 39.9618L109.676 37.3529M17.9696 37.3529L22.4959 39.9618M108.38 55.9693L118.395 54.1966M9.24194 54.1966L19.2656 55.9693M63.8231 8.41579V18.5832" stroke="#D9D9D9" stroke-width="2" stroke-miterlimit="10" stroke-linecap="round" stroke-linejoin="round"/>
<path d="M75.8265 53.7907L82.9258 30.7292L66.4326 48.4819" stroke="#D9D9D9" stroke-width="2" stroke-miterlimit="10" stroke-linecap="round" stroke-linejoin="round"/>
<path d="M30.6569 72.6054H36.5323C39.4207 72.6054 41.7871 74.9721 41.7871 77.8695C41.7871 80.7576 39.4207 83.1243 36.5323 83.1243H13.9926C11.1044 83.1243 8.73779 80.7576 8.73779 77.8695C8.73779 74.9721 11.1044 72.6054 13.9926 72.6054H19.8686" stroke="#D9D9D9" stroke-width="2" stroke-miterlimit="10" stroke-linecap="round" stroke-linejoin="round"/>
<path d="M107.768 83.1243H113.644C116.542 83.1243 118.908 80.7576 118.908 77.8695C118.908 74.9721 116.542 72.6054 113.644 72.6054H91.1134C88.2157 72.6054 85.8494 74.9721 85.8494 77.8695C85.8494 80.7576 88.2157 83.1243 91.1134 83.1243H96.9887" stroke="#D9D9D9" stroke-width="2" stroke-miterlimit="10" stroke-linecap="round" stroke-linejoin="round"/>
</g>
</svg>

<svg width="128" height="85" fill="none" xmlns="http://www.w3.org/2000/svg"><g opacity=".6" stroke="#D9D9D9" stroke-width="2" stroke-miterlimit="10" stroke-linecap="round" stroke-linejoin="round"><path d="M108.786 19.95c11.049 11.319 17.86 26.796 17.86 43.873H80.649m-33.66 0H1C1 29.127 29.127 1 63.823 1c13.749 0 26.463 4.418 36.802 11.904"/><path d="M63.823 79.112c8.422 0 15.287-6.866 15.287-15.288s-6.865-15.287-15.287-15.287-15.288 6.865-15.288 15.287 6.866 15.288 15.288 15.288ZM80.145 18.979l1.782-4.913m-36.217 0 1.79 4.913m46.988 8.296 3.356-4.004m-68.051 0 3.365 4.004m71.983 12.687 4.535-2.61m-91.706 0 4.526 2.61m85.884 16.007 10.015-1.772m-109.153 0 10.024 1.772M63.823 8.416v10.167"/><path d="m75.826 53.79 7.1-23.06-16.493 17.752M30.657 72.605h5.875c2.889 0 5.255 2.367 5.255 5.264 0 2.889-2.366 5.255-5.255 5.255h-22.54c-2.888 0-5.254-2.366-5.254-5.254 0-2.898 2.366-5.265 5.255-5.265h5.876M107.768 83.124h5.876c2.898 0 5.264-2.366 5.264-5.254a5.276 5.276 0 0 0-5.264-5.265h-22.53a5.277 5.277 0 0 0-5.265 5.264c0 2.889 2.367 5.255 5.264 5.255h5.876"/></g></svg>
